packages/core/src/svg/icon-smile.svg

<?xml version="1.0" encoding="UTF-8"?>
<svg xmlns="http://www.w3.org/2000/svg" width="100%" height="100%" viewBox="0 0 24 24">
  <path d="M12.013717,1.01899281 C18.0697842,1.02004796 22.9794245,5.92968825 22.9794245,11.9852278 C22.9794245,18.0407674 18.0682014,22.9504077 12.013717,22.9504077 C5.95923261,22.9504077 1.04853717,18.041295 1.04853717,11.9852278 C1.04853717,5.92916067 5.95923261,1.02004796 12.013717,1.01899281 L12.013717,1.01899281 Z M12.013717,2.84652278 C6.97534772,2.84652278 2.87764988,6.94685851 2.87764988,11.9852278 C2.87764988,17.0235971 6.97640288,21.1228777 12.0152998,21.1228777 C17.0541966,21.1228777 21.1534772,17.0235971 21.1534772,11.9852278 C21.1534772,6.94685851 17.0526139,2.84652278 12.013717,2.84652278 Z M16.3688729,14.1029257 L18.0117506,14.903789 C16.9025481,17.205879 14.5690751,18.6656081 12.013717,18.6559233 C9.45683429,18.6671944 7.12141723,17.2069429 6.01199041,14.9032614 L7.65486811,14.1029257 C8.46605189,15.7702798 10.157662,16.828478 12.0118705,16.828478 C13.866079,16.828478 15.5576891,15.7702798 16.3688729,14.1029257 Z M8.0542446,8.33016787 C8.89543918,8.33016787 9.57736211,9.0120908 9.57736211,9.85328537 C9.57736211,10.6944799 8.89543918,11.3764029 8.0542446,11.3764029 C7.21305003,11.3764029 6.5311271,10.6944799 6.5311271,9.85328537 C6.5311271,9.0120908 7.21305003,8.33016787 8.0542446,8.33016787 Z M15.973717,8.33016787 C16.8149116,8.33016787 17.4968345,9.0120908 17.4968345,9.85328537 C17.4968345,10.6944799 16.8149116,11.3764029 15.973717,11.3764029 C15.1325225,11.3764029 14.4505995,10.6944799 14.4505995,9.85328537 C14.4505995,9.0120908 15.1325225,8.33016787 15.973717,8.33016787 Z" />
</svg>

<?xml version="1.0" encoding="UTF-8"?><svg viewBox="0 0 24 24" xmlns="http://www.w3.org/2000/svg"><path d="m12.014 1.019c6.0561 0.0010552 10.966 4.9107 10.966 10.966 0 6.0555-4.9112 10.965-10.966 10.965-6.0545 0-10.965-4.9091-10.965-10.965 0-6.0561 4.9107-10.965 10.965-10.966zm0 1.8275c-5.0384 0-9.1361 4.1003-9.1361 9.1387 0 5.0384 4.0988 9.1376 9.1376 9.1376 5.0389 0 9.1382-4.0993 9.1382-9.1376 0-5.0384-4.1009-9.1387-9.1398-9.1387zm4.3552 11.256 1.6429 0.80086c-1.1092 2.3021-3.4427 3.7618-5.998 3.7521-2.5569 0.011271-4.8923-1.449-6.0017-3.7527l1.6429-0.80034c0.81118 1.6674 2.5028 2.7256 4.357 2.7256s3.5458-1.0582 4.357-2.7256zm-8.3146-5.7728c0.84119 0 1.5231 0.68192 1.5231 1.5231 0 0.84119-0.68192 1.5231-1.5231 1.5231-0.84119 0-1.5231-0.68192-1.5231-1.5231 0-0.84119 0.68192-1.5231 1.5231-1.5231zm7.9195 0c0.84119 0 1.5231 0.68192 1.5231 1.5231 0 0.84119-0.68192 1.5231-1.5231 1.5231-0.84119 0-1.5231-0.68192-1.5231-1.5231 0-0.84119 0.68192-1.5231 1.5231-1.5231z"/></svg>
